svg/device/tower_crane_line.svg

<?xml version="1.0" encoding="UTF-8"?>
<svg width="24px" height="24px" viewBox="0 0 24 24" version="1.1" xmlns="http://www.w3.org/2000/svg" xmlns:xlink="http://www.w3.org/1999/xlink">
    <title>tower_crane_line</title>
    <g id="Icon" stroke="none" stroke-width="1" fill="none" fill-rule="evenodd">
        <g id="Device" transform="translate(-816.000000, -384.000000)">
            <g id="tower_crane_line" transform="translate(816.000000, 384.000000)">
                <path d="M24,0 L24,24 L0,24 L0,0 L24,0 Z M12.5935,23.2578 L12.5819,23.2595 L12.5109,23.295 L12.4919,23.2987 L12.4767,23.295 L12.4057,23.2595 C12.3958,23.2564 12.387,23.259 12.3821,23.2649 L12.378,23.2758 L12.3609,23.7031 L12.3659,23.7235 L12.3769,23.7357 L12.4805,23.8097 L12.4953,23.8136 L12.5071,23.8097 L12.6107,23.7357 L12.6233,23.7197 L12.6267,23.7031 L12.6096,23.2758 C12.6076,23.2657 12.601,23.2593 12.5935,23.2578 Z M12.8584,23.1453 L12.8445,23.1473 L12.6598,23.2397 L12.6499,23.2499 L12.6472,23.2611 L12.6651,23.6906 L12.6699,23.7034 L12.6784,23.7105 L12.8793,23.8032 C12.8914,23.8069 12.9022,23.803 12.9078,23.7952 L12.9118,23.7812 L12.8777,23.1665 C12.8753,23.1546 12.8674,23.147 12.8584,23.1453 Z M12.143,23.1473 C12.1332,23.1424 12.1222,23.1453 12.1156,23.1526 L12.1099,23.1665 L12.0758,23.7812 C12.0751,23.7927 12.0828,23.8019 12.0926,23.8046 L12.1083,23.8032 L12.3092,23.7105 L12.3186,23.7024 L12.3225,23.6906 L12.3404,23.2611 L12.3372,23.2485 L12.3278,23.2397 L12.143,23.1473 Z" id="MingCute" fill-rule="nonzero"></path>
                <path d="M8.23179,2.35987 C8.51196917,2.023655 8.97418611,1.91198743 9.3721134,2.07180661 L9.47886,2.12216 L20.4789,8.12216 C20.8802,8.34105 21.082,8.8042 20.969,9.24714 C20.8655083,9.6531775 20.5216132,9.94750847 20.1129315,9.99374393 L19.9999985,10.0001 L17.9999985,10.0001 L17.9999985,12.9939 C18.0038,13.0048 18.0171,13.0325 18.0569,13.0789 C18.1145,13.146025 18.2027563,13.2210813 18.316775,13.2946609 L18.4392,13.3674 C19.3671,13.8753 19.9999985,14.8631 19.9999985,16.0001 C19.9999985,17.6569 18.6569,19.0001 16.9999985,19.0001 C15.3432,19.0001 13.9999985,17.6569 13.9999985,16.0001 C13.9999985,15.4478 14.4477,15.0001 14.9999985,15.0001 C15.5128499,15.0001 15.9355079,15.386127 15.993271,15.8834761 L15.9999985,16.0001 C15.9999985,16.5523 16.4477,17.0001 16.9999985,17.0001 C17.5523,17.0001 17.9999985,16.5523 17.9999985,16.0001 C17.9999985,15.6229 17.7916,15.2929 17.4788,15.1217 C17.1685,14.9519 16.8204,14.7093 16.5388,14.381 C16.2845778,14.0845556 16.0565865,13.6825506 16.0090603,13.1893128 L15.9999985,13.0001 L15.9999985,10.0001 L11.9999985,10.0001 L11.9999985,21.0001 C11.9999985,21.5128571 11.6139728,21.9355959 11.1166227,21.9933711 L10.9999985,22.0001 L7.00001,22.0001 C6.48717857,22.0001 6.06450347,21.6139867 6.0067378,21.1167055 L6.00001,21.0001 L6.00001,10.0001 L4.00001,10.0001 C3.61199,10.0001 3.259,9.77559 3.09442,9.42421 C2.94812667,9.11187222 2.97418296,8.7493616 3.1562386,8.4633086 L3.23179,8.35987 L8.23179,2.35987 Z M10.00001,17.6181 L8.00001,18.6181 L8.00001,20.0001 L10.00001,20.0001 L10.00001,17.6181 Z M10.00001,13.6181 L8.00001,14.6181 L8.00001,16.382 L10.00001,15.382 L10.00001,13.6181 Z M10.00001,10.0001 L8.00001,10.0001 L8.00001,12.382 L10.00001,11.382 L10.00001,10.0001 Z M8.00001,5.7621 L6.13505,8.00005 L8.00001,8.00005 L8.00001,5.7621 Z M10,4.6846 L10,8.00005 L16.0784,8.00005 L10,4.6846 Z" id="形状" fill="#09244B"></path>
            </g>
        </g>
    </g>
</svg>

<svg xmlns="http://www.w3.org/2000/svg" width="24" height="24"><g fill="none" fill-rule="evenodd"><path d="M24 0v24H0V0h24ZM12.594 23.258l-.012.002-.071.035-.02.004-.014-.004-.071-.036c-.01-.003-.019 0-.024.006l-.004.01-.017.428.005.02.01.013.104.074.015.004.012-.004.104-.074.012-.016.004-.017-.017-.427c-.002-.01-.009-.017-.016-.018Zm.264-.113-.014.002-.184.093-.01.01-.003.011.018.43.005.012.008.008.201.092c.012.004.023 0 .029-.008l.004-.014-.034-.614c-.003-.012-.01-.02-.02-.022Zm-.715.002a.023.023 0 0 0-.027.006l-.006.014-.034.614c0 .012.007.02.017.024l.015-.002.201-.093.01-.008.003-.011.018-.43-.003-.012-.01-.01-.184-.092Z"/><path fill="#09244B" d="M8.232 2.36a1 1 0 0 1 1.14-.288l.107.05 11 6a1 1 0 0 1-.366 1.872L20 10h-2v2.994a.3.3 0 0 0 .057.085c.058.067.146.142.26.216l.122.072A3 3 0 1 1 14 16a1 1 0 0 1 1.993-.117L16 16a1 1 0 1 0 1.479-.878 3.375 3.375 0 0 1-.94-.741 2.153 2.153 0 0 1-.53-1.192L16 13v-3h-4v11a1 1 0 0 1-.883.993L11 22H7a1 1 0 0 1-.993-.883L6 21V10H4a1 1 0 0 1-.844-1.537l.076-.103 5-6ZM10 17.618l-2 1V20h2v-2.382Zm0-4-2 1v1.764l2-1v-1.764ZM10 10H8v2.382l2-1V10ZM8 5.762 6.135 8H8V5.762Zm2-1.077V8h6.078L10 4.685Z"/></g></svg>
